X: 43584
T: Young Sandy Tulloch
R: reel
M: 4/4
K: Gmajor
|:d/e/f|gG G/G/G BGDG|c2 B/A/G AD D/D/D|DG G/G/G BG G/G/G|AB ^c/B/A d2 ef|
gG D/E/F GDBG|cBAG FEDF|G2 B/A/G AB^cA|BdDF G2:|
|:cA|Bdde d2 B/A/G|B/c/d ed gdBA|Bdde dGBd|edcB A/A/A Gc|
Bd d/d/e dGcA|Bdef g3 a|b2 a/g/f gfed|egdB A2:|

